X:644
T:Reel 644
M:4/4
K:Dmaj
L:1/8
FE|D2DF E2DF|A2AB AFEF|D2DF A2DF|E2FD EDB,C|D2DE F2FB|AFDF EDB,2|A,2DF AFDF|dfed d2|A2|dBde f2ed|BdAd BdAd|f2df e2ed|Adce dcde|fedf edce|dcBd A2FG|FEDF EFF2|BdAF D2|
